report_00007_2020-12-11T15:55:29.892Z/first-contentful-paint/comparison/sorted/1_vs_2.svg

<svg width="640" height="500" xmlns="http://www.w3.org/2000/svg" xmlns:xlink="http://www.w3.org/1999/xlink"><path fill="#fff" d="M0 0h640v500H0z"/><defs><path id="d" stroke-width=".222" stroke="currentColor" d="M-1-1h2v2h-2z"/><path id="b" stroke-width=".222" stroke="currentColor" d="M0-1.33l-1.33 2h2.66z"/><path id="f" stroke-width=".222" stroke="currentColor" d="M0 1.33L1.265.411.782-1.067l-1.564-.009-.483 1.487z"/><use xlink:href="#b" id="c" stroke="currentColor" transform="rotate(180)"/><use xlink:href="#d" id="e" stroke="currentColor" transform="rotate(45)"/><circle id="a" stroke-width=".222" stroke="currentColor" cx="0" cy="0" r="1"/></defs><g fill="none" color="#000" stroke="currentColor"><path stroke="#000" d="M62.2 415.9h9m543.8 0h-9"/><text transform="translate(53.9 419.8)" stroke="none" fill="#000" font-family="Arial" font-size="12" text-anchor="end"><tspan>1950</tspan></text></g><g fill="none" color="#000" stroke="currentColor"><path stroke="#000" d="M62.2 373.2h9m543.8 0h-9"/><text transform="translate(53.9 377.1)" stroke="none" fill="#000" font-family="Arial" font-size="12" text-anchor="end"><tspan>2000</tspan></text></g><g fill="none" color="#000" stroke="currentColor"><path stroke="#000" d="M62.2 330.6h9m543.8 0h-9"/><text transform="translate(53.9 334.5)" stroke="none" fill="#000" font-family="Arial" font-size="12" text-anchor="end"><tspan>2050</tspan></text></g><g fill="none" color="#000" stroke="currentColor"><path stroke="#000" d="M62.2 288h9m543.8 0h-9"/><text transform="translate(53.9 291.9)" stroke="none" fill="#000" font-family="Arial" font-size="12" text-anchor="end"><tspan>2100</tspan></text></g><g fill="none" color="#000" stroke="currentColor"><path stroke="#000" d="M62.2 245.4h9m543.8 0h-9"/><text transform="translate(53.9 249.3)" stroke="none" fill="#000" font-family="Arial" font-size="12" text-anchor="end"><tspan>2150</tspan></text></g><g fill="none" color="#000" stroke="currentColor"><path stroke="#000" d="M62.2 202.7h9m543.8 0h-9"/><text transform="translate(53.9 206.6)" stroke="none" fill="#000" font-family="Arial" font-size="12" text-anchor="end"><tspan>2200</tspan></text></g><g fill="none" color="#000" stroke="currentColor"><path stroke="#000" d="M62.2 160.1h9m543.8 0h-9"/><text transform="translate(53.9 164)" stroke="none" fill="#000" font-family="Arial" font-size="12" text-anchor="end"><tspan>2250</tspan></text></g><g fill="none" color="#000" stroke="currentColor"><path stroke="#000" d="M62.2 117.5h9m543.8 0h-9"/><text transform="translate(53.9 121.4)" stroke="none" fill="#000" font-family="Arial" font-size="12" text-anchor="end"><tspan>2300</tspan></text></g><g fill="none" color="#000" stroke="currentColor"><path stroke="#000" d="M62.2 74.9h9m543.8 0h-9"/><text transform="translate(53.9 78.8)" stroke="none" fill="#000" font-family="Arial" font-size="12" text-anchor="end"><tspan>2350</tspan></text></g><g fill="none" color="#000" stroke="currentColor"><path stroke="#000" d="M62.2 32.3h9m543.8 0h-9"/><text transform="translate(53.9 36.2)" stroke="none" fill="#000" font-family="Arial" font-size="12" text-anchor="end"><tspan>2400</tspan></text></g><g fill="none" color="#000" stroke="currentColor"><path stroke="#000" d="M62.2 428v-9m0-400.9v9"/><text transform="translate(62.2 449.9)" stroke="none" fill="#000" font-family="Arial" font-size="12" text-anchor="middle"><tspan>0</tspan></text></g><g fill="none" color="#000" stroke="currentColor"><path stroke="#000" d="M118 428v-9m0-400.9v9"/><text transform="translate(118 449.9)" stroke="none" fill="#000" font-family="Arial" font-size="12" text-anchor="middle"><tspan>10</tspan></text></g><g fill="none" color="#000" stroke="currentColor"><path stroke="#000" d="M173.9 428v-9m0-400.9v9"/><text transform="translate(173.9 449.9)" stroke="none" fill="#000" font-family="Arial" font-size="12" text-anchor="middle"><tspan>20</tspan></text></g><g fill="none" color="#000" stroke="currentColor"><path stroke="#000" d="M229.7 428v-9m0-400.9v9"/><text transform="translate(229.7 449.9)" stroke="none" fill="#000" font-family="Arial" font-size="12" text-anchor="middle"><tspan>30</tspan></text></g><g fill="none" color="#000" stroke="currentColor"><path stroke="#000" d="M285.6 428v-9m0-400.9v9"/><text transform="translate(285.6 449.9)" stroke="none" fill="#000" font-family="Arial" font-size="12" text-anchor="middle"><tspan>40</tspan></text></g><g fill="none" color="#000" stroke="currentColor"><path stroke="#000" d="M341.4 428v-9m0-400.9v9"/><text transform="translate(341.4 449.9)" stroke="none" fill="#000" font-family="Arial" font-size="12" text-anchor="middle"><tspan>50</tspan></text></g><g fill="none" color="#000" stroke="currentColor"><path stroke="#000" d="M397.2 428v-9m0-400.9v9"/><text transform="translate(397.2 449.9)" stroke="none" fill="#000" font-family="Arial" font-size="12" text-anchor="middle"><tspan>60</tspan></text></g><g fill="none" color="#000" stroke="currentColor"><path stroke="#000" d="M453.1 428v-9m0-400.9v9"/><text transform="translate(453.1 449.9)" stroke="none" fill="#000" font-family="Arial" font-size="12" text-anchor="middle"><tspan>70</tspan></text></g><g fill="none" color="#000" stroke="currentColor"><path stroke="#000" d="M508.9 428v-9m0-400.9v9"/><text transform="translate(508.9 449.9)" stroke="none" fill="#000" font-family="Arial" font-size="12" text-anchor="middle"><tspan>80</tspan></text></g><g fill="none" color="#000" stroke="currentColor"><path stroke="#000" d="M564.7 428v-9m0-400.9v9"/><text transform="translate(564.7 449.9)" stroke="none" fill="#000" font-family="Arial" font-size="12" text-anchor="middle"><tspan>90</tspan></text></g><path stroke="#000" d="M62.2 18.1V428H615V18.1H62.2z" fill="none" color="#000"/><text transform="translate(279.8 467.9)" stroke="none" fill="#000" font-family="Arial" font-size="12" text-anchor="end" color="#000"><tspan>pages</tspan></text><path stroke="#9400D3" d="M288.1 464h42.2M62.2 420.1h5.6l5.6-.1H79l5.5-.4 5.6-.1h5.6l5.6-.3 5.6-.1h5.6l5.5-.1 5.6-.1h5.6l5.6-.3 5.6-.1h5.6l5.5-.1h5.6l5.6-.2 5.6-.1 5.6-.1h5.6l5.5-.7h5.6l5.6-.2h5.6l5.6-.1 5.6-.1 5.5-.3 5.6-.1 5.6-.2 5.6-.1 5.6-.2 5.6-.2 5.6-.1h5.5l5.6-.3h5.6l5.6-.1 5.6-.1 5.6-.1 5.5-.2 5.6-.4 5.6-.1 5.6-.2 5.6-.1 5.6-.1h5.5l5.6-.2 5.6-.3 5.6-.1 5.6-.1 5.6-.2h5.5l5.6-.1h5.6l5.6-.4 5.6-.3 5.6-.2 5.5-.2 5.6-.1 5.6-.3 5.6-.1 5.6-.1 5.6-.1h11.1l5.6-.7 5.6-.3h5.6l5.6-.1 5.6-.3 5.5-.5 5.6-.3 5.6-.3 5.6-.1 5.6-.1 5.6-.7 5.5-.1 5.6-.4 5.6-.7 5.6-.8 5.6-5.7 5.6-22.2 5.5-11.9 5.6-5.1 5.6-.3 5.6-2 5.6-7.1 5.6-3.9 5.5-16.2 5.6-10.3 5.6-6.9 5.6-34.3 5.6-21.4 5.6-14.4 5.5-19.9 5.6-3.6 5.6-4.7L615 26" fill="none" color="#000"/><text transform="translate(279.8 485.9)" stroke="none" fill="#000" font-family="Arial" font-size="12" text-anchor="end" color="#000"><tspan>pages+cached</tspan></text><path stroke="#009E73" d="M288.1 482h42.2M62.2 417.6l5.6-18.3 5.6-1.1 5.6-.6 5.5-.1h5.6l5.6-.1 5.6-.2 5.6-.1h5.6l5.5-.1 5.6-.1 5.6-.2H146l5.5-.1 5.6-.1h11.2l5.6-.1 5.6-.2h5.5l5.6-.1h5.6l5.6-.1h5.6l5.6-.1h11.1l5.6-.1h5.6l5.6-.1 5.6-.1h5.6l5.5-.1h11.2l5.6-.1h11.2l5.5-.2 5.6-.1h11.2l5.6-.2 5.6-.2 5.5-.1H341.4l5.6-.1 5.6-.2h11.1l5.6-.1 5.6-.1h5.6l5.6-.1h5.5l5.6-.1 5.6-.1 5.6-.3h5.6l5.6-.1 5.5-.4 5.6-.1h5.6l5.6-.5h5.6l5.6-.7 5.6-4.4 5.5-57.3 5.6-62.3 5.6-2.4 5.6-1.9 5.6-.2 5.6-1.2 5.5-60.1 5.6-.3 5.6-.2 5.6-.6 5.6-.2 5.6-.2 5.5-.1 5.6-.8 5.6-.6 5.6-.1 5.6-.5 5.6-.2 5.5-.5H581.5l5.6-.4 5.6-.3 5.5-.2 5.6-.3 5.6-.1 5.6-1.9" fill="none" color="#000"/><text transform="translate(479.7 467.9)" stroke="none" fill="#000" font-family="Arial" font-size="12" text-anchor="end" color="#000"><tspan>score p10=2336</tspan></text><path stroke="#56B4E9" d="M488 464h42.2M62.2 86.8H615" fill="none" color="#000"/><g><text transform="translate(479.7 485.9)" stroke="none" fill="#000" font-family="Arial" font-size="12" text-anchor="end" color="#000"><tspan>score median=4000</tspan></text><path stroke="#E69F00" d="M488 482h42.2" fill="none" color="#000"/></g><g fill="none" color="#000" stroke="currentColor"><path stroke="#000" d="M62.2 18.1V428H615V18.1H62.2z"/></g></svg>

<?xml version="1.0" encoding="utf-8"  standalone="no"?>
<svg 
 width="640" height="500"
 viewBox="0 0 640 500"
 xmlns="http://www.w3.org/2000/svg"
 xmlns:xlink="http://www.w3.org/1999/xlink"
>

<title>Gnuplot</title>
<desc>Produced by GNUPLOT 5.4 patchlevel 0 </desc>

<g id="gnuplot_canvas">

<rect x="0" y="0" width="640" height="500" fill="#ffffff"/>
<defs>

	<circle id='gpDot' r='0.5' stroke-width='0.5' stroke='currentColor'/>
	<path id='gpPt0' stroke-width='0.222' stroke='currentColor' d='M-1,0 h2 M0,-1 v2'/>
	<path id='gpPt1' stroke-width='0.222' stroke='currentColor' d='M-1,-1 L1,1 M1,-1 L-1,1'/>
	<path id='gpPt2' stroke-width='0.222' stroke='currentColor' d='M-1,0 L1,0 M0,-1 L0,1 M-1,-1 L1,1 M-1,1 L1,-1'/>
	<rect id='gpPt3' stroke-width='0.222' stroke='currentColor' x='-1' y='-1' width='2' height='2'/>
	<rect id='gpPt4' stroke-width='0.222' stroke='currentColor' fill='currentColor' x='-1' y='-1' width='2' height='2'/>
	<circle id='gpPt5' stroke-width='0.222' stroke='currentColor' cx='0' cy='0' r='1'/>
	<use xlink:href='#gpPt5' id='gpPt6' fill='currentColor' stroke='none'/>
	<path id='gpPt7' stroke-width='0.222' stroke='currentColor' d='M0,-1.33 L-1.33,0.67 L1.33,0.67 z'/>
	<use xlink:href='#gpPt7' id='gpPt8' fill='currentColor' stroke='none'/>
	<use xlink:href='#gpPt7' id='gpPt9' stroke='currentColor' transform='rotate(180)'/>
	<use xlink:href='#gpPt9' id='gpPt10' fill='currentColor' stroke='none'/>
	<use xlink:href='#gpPt3' id='gpPt11' stroke='currentColor' transform='rotate(45)'/>
	<use xlink:href='#gpPt11' id='gpPt12' fill='currentColor' stroke='none'/>
	<path id='gpPt13' stroke-width='0.222' stroke='currentColor' d='M0,1.330 L1.265,0.411 L0.782,-1.067 L-0.782,-1.076 L-1.265,0.411 z'/>
	<use xlink:href='#gpPt13' id='gpPt14' fill='currentColor' stroke='none'/>
	<filter id='textbox' filterUnits='objectBoundingBox' x='0' y='0' height='1' width='1'>
	  <feFlood flood-color='#FFFFFF' flood-opacity='1' result='bgnd'/>
	  <feComposite in='SourceGraphic' in2='bgnd' operator='atop'/>
	</filter>
	<filter id='greybox' filterUnits='objectBoundingBox' x='0' y='0' height='1' width='1'>
	  <feFlood flood-color='lightgrey' flood-opacity='1' result='grey'/>
	  <feComposite in='SourceGraphic' in2='grey' operator='atop'/>
	</filter>
</defs>
<g fill="none" color="#FFFFFF" stroke="black" stroke-width="1.00" stroke-linecap="butt" stroke-linejoin="miter">
</g>
<g fill="none" color="black" stroke="currentColor" stroke-width="1.00" stroke-linecap="butt" stroke-linejoin="miter">
	<path stroke='black'  d='M62.2,415.9 L71.2,415.9 M615.0,415.9 L606.0,415.9  '/>	<g transform="translate(53.9,419.8)" stroke="none" fill="black" font-family="Arial" font-size="12.00"  text-anchor="end">
		<text><tspan font-family="Arial" > 1950</tspan></text>
	</g>
</g>
<g fill="none" color="black" stroke="currentColor" stroke-width="1.00" stroke-linecap="butt" stroke-linejoin="miter">
	<path stroke='black'  d='M62.2,373.2 L71.2,373.2 M615.0,373.2 L606.0,373.2  '/>	<g transform="translate(53.9,377.1)" stroke="none" fill="black" font-family="Arial" font-size="12.00"  text-anchor="end">
		<text><tspan font-family="Arial" > 2000</tspan></text>
	</g>
</g>
<g fill="none" color="black" stroke="currentColor" stroke-width="1.00" stroke-linecap="butt" stroke-linejoin="miter">
	<path stroke='black'  d='M62.2,330.6 L71.2,330.6 M615.0,330.6 L606.0,330.6  '/>	<g transform="translate(53.9,334.5)" stroke="none" fill="black" font-family="Arial" font-size="12.00"  text-anchor="end">
		<text><tspan font-family="Arial" > 2050</tspan></text>
	</g>
</g>
<g fill="none" color="black" stroke="currentColor" stroke-width="1.00" stroke-linecap="butt" stroke-linejoin="miter">
	<path stroke='black'  d='M62.2,288.0 L71.2,288.0 M615.0,288.0 L606.0,288.0  '/>	<g transform="translate(53.9,291.9)" stroke="none" fill="black" font-family="Arial" font-size="12.00"  text-anchor="end">
		<text><tspan font-family="Arial" > 2100</tspan></text>
	</g>
</g>
<g fill="none" color="black" stroke="currentColor" stroke-width="1.00" stroke-linecap="butt" stroke-linejoin="miter">
	<path stroke='black'  d='M62.2,245.4 L71.2,245.4 M615.0,245.4 L606.0,245.4  '/>	<g transform="translate(53.9,249.3)" stroke="none" fill="black" font-family="Arial" font-size="12.00"  text-anchor="end">
		<text><tspan font-family="Arial" > 2150</tspan></text>
	</g>
</g>
<g fill="none" color="black" stroke="currentColor" stroke-width="1.00" stroke-linecap="butt" stroke-linejoin="miter">
	<path stroke='black'  d='M62.2,202.7 L71.2,202.7 M615.0,202.7 L606.0,202.7  '/>	<g transform="translate(53.9,206.6)" stroke="none" fill="black" font-family="Arial" font-size="12.00"  text-anchor="end">
		<text><tspan font-family="Arial" > 2200</tspan></text>
	</g>
</g>
<g fill="none" color="black" stroke="currentColor" stroke-width="1.00" stroke-linecap="butt" stroke-linejoin="miter">
	<path stroke='black'  d='M62.2,160.1 L71.2,160.1 M615.0,160.1 L606.0,160.1  '/>	<g transform="translate(53.9,164.0)" stroke="none" fill="black" font-family="Arial" font-size="12.00"  text-anchor="end">
		<text><tspan font-family="Arial" > 2250</tspan></text>
	</g>
</g>
<g fill="none" color="black" stroke="currentColor" stroke-width="1.00" stroke-linecap="butt" stroke-linejoin="miter">
	<path stroke='black'  d='M62.2,117.5 L71.2,117.5 M615.0,117.5 L606.0,117.5  '/>	<g transform="translate(53.9,121.4)" stroke="none" fill="black" font-family="Arial" font-size="12.00"  text-anchor="end">
		<text><tspan font-family="Arial" > 2300</tspan></text>
	</g>
</g>
<g fill="none" color="black" stroke="currentColor" stroke-width="1.00" stroke-linecap="butt" stroke-linejoin="miter">
	<path stroke='black'  d='M62.2,74.9 L71.2,74.9 M615.0,74.9 L606.0,74.9  '/>	<g transform="translate(53.9,78.8)" stroke="none" fill="black" font-family="Arial" font-size="12.00"  text-anchor="end">
		<text><tspan font-family="Arial" > 2350</tspan></text>
	</g>
</g>
<g fill="none" color="black" stroke="currentColor" stroke-width="1.00" stroke-linecap="butt" stroke-linejoin="miter">
	<path stroke='black'  d='M62.2,32.3 L71.2,32.3 M615.0,32.3 L606.0,32.3  '/>	<g transform="translate(53.9,36.2)" stroke="none" fill="black" font-family="Arial" font-size="12.00"  text-anchor="end">
		<text><tspan font-family="Arial" > 2400</tspan></text>
	</g>
</g>
<g fill="none" color="black" stroke="currentColor" stroke-width="1.00" stroke-linecap="butt" stroke-linejoin="miter">
	<path stroke='black'  d='M62.2,428.0 L62.2,419.0 M62.2,18.1 L62.2,27.1  '/>	<g transform="translate(62.2,449.9)" stroke="none" fill="black" font-family="Arial" font-size="12.00"  text-anchor="middle">
		<text><tspan font-family="Arial" > 0</tspan></text>
	</g>
</g>
<g fill="none" color="black" stroke="currentColor" stroke-width="1.00" stroke-linecap="butt" stroke-linejoin="miter">
	<path stroke='black'  d='M118.0,428.0 L118.0,419.0 M118.0,18.1 L118.0,27.1  '/>	<g transform="translate(118.0,449.9)" stroke="none" fill="black" font-family="Arial" font-size="12.00"  text-anchor="middle">
		<text><tspan font-family="Arial" > 10</tspan></text>
	</g>
</g>
<g fill="none" color="black" stroke="currentColor" stroke-width="1.00" stroke-linecap="butt" stroke-linejoin="miter">
	<path stroke='black'  d='M173.9,428.0 L173.9,419.0 M173.9,18.1 L173.9,27.1  '/>	<g transform="translate(173.9,449.9)" stroke="none" fill="black" font-family="Arial" font-size="12.00"  text-anchor="middle">
		<text><tspan font-family="Arial" > 20</tspan></text>
	</g>
</g>
<g fill="none" color="black" stroke="currentColor" stroke-width="1.00" stroke-linecap="butt" stroke-linejoin="miter">
	<path stroke='black'  d='M229.7,428.0 L229.7,419.0 M229.7,18.1 L229.7,27.1  '/>	<g transform="translate(229.7,449.9)" stroke="none" fill="black" font-family="Arial" font-size="12.00"  text-anchor="middle">
		<text><tspan font-family="Arial" > 30</tspan></text>
	</g>
</g>
<g fill="none" color="black" stroke="currentColor" stroke-width="1.00" stroke-linecap="butt" stroke-linejoin="miter">
	<path stroke='black'  d='M285.6,428.0 L285.6,419.0 M285.6,18.1 L285.6,27.1  '/>	<g transform="translate(285.6,449.9)" stroke="none" fill="black" font-family="Arial" font-size="12.00"  text-anchor="middle">
		<text><tspan font-family="Arial" > 40</tspan></text>
	</g>
</g>
<g fill="none" color="black" stroke="currentColor" stroke-width="1.00" stroke-linecap="butt" stroke-linejoin="miter">
	<path stroke='black'  d='M341.4,428.0 L341.4,419.0 M341.4,18.1 L341.4,27.1  '/>	<g transform="translate(341.4,449.9)" stroke="none" fill="black" font-family="Arial" font-size="12.00"  text-anchor="middle">
		<text><tspan font-family="Arial" > 50</tspan></text>
	</g>
</g>
<g fill="none" color="black" stroke="currentColor" stroke-width="1.00" stroke-linecap="butt" stroke-linejoin="miter">
	<path stroke='black'  d='M397.2,428.0 L397.2,419.0 M397.2,18.1 L397.2,27.1  '/>	<g transform="translate(397.2,449.9)" stroke="none" fill="black" font-family="Arial" font-size="12.00"  text-anchor="middle">
		<text><tspan font-family="Arial" > 60</tspan></text>
	</g>
</g>
<g fill="none" color="black" stroke="currentColor" stroke-width="1.00" stroke-linecap="butt" stroke-linejoin="miter">
	<path stroke='black'  d='M453.1,428.0 L453.1,419.0 M453.1,18.1 L453.1,27.1  '/>	<g transform="translate(453.1,449.9)" stroke="none" fill="black" font-family="Arial" font-size="12.00"  text-anchor="middle">
		<text><tspan font-family="Arial" > 70</tspan></text>
	</g>
</g>
<g fill="none" color="black" stroke="currentColor" stroke-width="1.00" stroke-linecap="butt" stroke-linejoin="miter">
	<path stroke='black'  d='M508.9,428.0 L508.9,419.0 M508.9,18.1 L508.9,27.1  '/>	<g transform="translate(508.9,449.9)" stroke="none" fill="black" font-family="Arial" font-size="12.00"  text-anchor="middle">
		<text><tspan font-family="Arial" > 80</tspan></text>
	</g>
</g>
<g fill="none" color="black" stroke="currentColor" stroke-width="1.00" stroke-linecap="butt" stroke-linejoin="miter">
	<path stroke='black'  d='M564.7,428.0 L564.7,419.0 M564.7,18.1 L564.7,27.1  '/>	<g transform="translate(564.7,449.9)" stroke="none" fill="black" font-family="Arial" font-size="12.00"  text-anchor="middle">
		<text><tspan font-family="Arial" > 90</tspan></text>
	</g>
</g>
<g fill="none" color="black" stroke="currentColor" stroke-width="1.00" stroke-linecap="butt" stroke-linejoin="miter">
</g>
<g fill="none" color="black" stroke="currentColor" stroke-width="1.00" stroke-linecap="butt" stroke-linejoin="miter">
	<path stroke='black'  d='M62.2,18.1 L62.2,428.0 L615.0,428.0 L615.0,18.1 L62.2,18.1 Z  '/></g>
<g fill="none" color="black" stroke="currentColor" stroke-width="1.00" stroke-linecap="butt" stroke-linejoin="miter">
</g>
	<g id="gnuplot_plot_1" ><title>pages</title>
<g fill="none" color="black" stroke="currentColor" stroke-width="1.00" stroke-linecap="butt" stroke-linejoin="miter">
	<g transform="translate(279.8,467.9)" stroke="none" fill="black" font-family="Arial" font-size="12.00"  text-anchor="end">
		<text><tspan font-family="Arial" >pages</tspan></text>
	</g>
</g>
<g fill="none" color="black" stroke="currentColor" stroke-width="1.00" stroke-linecap="butt" stroke-linejoin="miter">
	<path stroke='rgb(148,   0, 211)'  d='M288.1,464.0 L330.3,464.0 M62.2,420.1 L67.8,420.1 L73.4,420.0 L79.0,420.0 L84.5,419.6 L90.1,419.5
		L95.7,419.5 L101.3,419.2 L106.9,419.1 L112.5,419.1 L118.0,419.0 L123.6,418.9 L129.2,418.9 L134.8,418.6
		L140.4,418.5 L146.0,418.5 L151.5,418.4 L157.1,418.4 L162.7,418.2 L168.3,418.1 L173.9,418.0 L179.5,418.0
		L185.0,417.3 L190.6,417.3 L196.2,417.1 L201.8,417.1 L207.4,417.0 L213.0,416.9 L218.5,416.6 L224.1,416.5
		L229.7,416.3 L235.3,416.2 L240.9,416.0 L246.5,415.8 L252.1,415.7 L257.6,415.7 L263.2,415.4 L268.8,415.4
		L274.4,415.3 L280.0,415.2 L285.6,415.1 L291.1,414.9 L296.7,414.5 L302.3,414.4 L307.9,414.2 L313.5,414.1
		L319.1,414.0 L324.6,414.0 L330.2,413.8 L335.8,413.5 L341.4,413.4 L347.0,413.3 L352.6,413.1 L358.1,413.1
		L363.7,413.0 L369.3,413.0 L374.9,412.6 L380.5,412.3 L386.1,412.1 L391.6,411.9 L397.2,411.8 L402.8,411.5
		L408.4,411.4 L414.0,411.3 L419.6,411.2 L425.1,411.2 L430.7,411.2 L436.3,410.5 L441.9,410.2 L447.5,410.2
		L453.1,410.1 L458.7,409.8 L464.2,409.3 L469.8,409.0 L475.4,408.7 L481.0,408.6 L486.6,408.5 L492.2,407.8
		L497.7,407.7 L503.3,407.3 L508.9,406.6 L514.5,405.8 L520.1,400.1 L525.7,377.9 L531.2,366.0 L536.8,360.9
		L542.4,360.6 L548.0,358.6 L553.6,351.5 L559.2,347.6 L564.7,331.4 L570.3,321.1 L575.9,314.2 L581.5,279.9
		L587.1,258.5 L592.7,244.1 L598.2,224.2 L603.8,220.6 L609.4,215.9 L615.0,26.0  '/></g>
	</g>
	<g id="gnuplot_plot_2" ><title>pages+cached</title>
<g fill="none" color="black" stroke="currentColor" stroke-width="1.00" stroke-linecap="butt" stroke-linejoin="miter">
	<g transform="translate(279.8,485.9)" stroke="none" fill="black" font-family="Arial" font-size="12.00"  text-anchor="end">
		<text><tspan font-family="Arial" >pages+cached</tspan></text>
	</g>
</g>
<g fill="none" color="black" stroke="currentColor" stroke-width="1.00" stroke-linecap="butt" stroke-linejoin="miter">
	<path stroke='rgb(  0, 158, 115)'  d='M288.1,482.0 L330.3,482.0 M62.2,417.6 L67.8,399.3 L73.4,398.2 L79.0,397.6 L84.5,397.5 L90.1,397.5
		L95.7,397.4 L101.3,397.2 L106.9,397.1 L112.5,397.1 L118.0,397.0 L123.6,396.9 L129.2,396.7 L134.8,396.7
		L140.4,396.7 L146.0,396.7 L151.5,396.6 L157.1,396.5 L162.7,396.5 L168.3,396.5 L173.9,396.4 L179.5,396.2
		L185.0,396.2 L190.6,396.1 L196.2,396.1 L201.8,396.0 L207.4,396.0 L213.0,395.9 L218.5,395.9 L224.1,395.9
		L229.7,395.8 L235.3,395.8 L240.9,395.7 L246.5,395.6 L252.1,395.6 L257.6,395.5 L263.2,395.5 L268.8,395.5
		L274.4,395.4 L280.0,395.4 L285.6,395.4 L291.1,395.2 L296.7,395.1 L302.3,395.1 L307.9,395.1 L313.5,394.9
		L319.1,394.7 L324.6,394.6 L330.2,394.6 L335.8,394.6 L341.4,394.6 L347.0,394.5 L352.6,394.3 L358.1,394.3
		L363.7,394.3 L369.3,394.2 L374.9,394.1 L380.5,394.1 L386.1,394.0 L391.6,394.0 L397.2,393.9 L402.8,393.8
		L408.4,393.5 L414.0,393.5 L419.6,393.4 L425.1,393.0 L430.7,392.9 L436.3,392.9 L441.9,392.4 L447.5,392.4
		L453.1,391.7 L458.7,387.3 L464.2,330.0 L469.8,267.7 L475.4,265.3 L481.0,263.4 L486.6,263.2 L492.2,262.0
		L497.7,201.9 L503.3,201.6 L508.9,201.4 L514.5,200.8 L520.1,200.6 L525.7,200.4 L531.2,200.3 L536.8,199.5
		L542.4,198.9 L548.0,198.8 L553.6,198.3 L559.2,198.1 L564.7,197.6 L570.3,197.6 L575.9,197.6 L581.5,197.6
		L587.1,197.2 L592.7,196.9 L598.2,196.7 L603.8,196.4 L609.4,196.3 L615.0,194.4  '/></g>
	</g>
	<g id="gnuplot_plot_3" ><title>score p10=2336</title>
<g fill="none" color="black" stroke="currentColor" stroke-width="1.00" stroke-linecap="butt" stroke-linejoin="miter">
	<g transform="translate(479.7,467.9)" stroke="none" fill="black" font-family="Arial" font-size="12.00"  text-anchor="end">
		<text><tspan font-family="Arial" >score p10=2336</tspan></text>
	</g>
</g>
<g fill="none" color="black" stroke="currentColor" stroke-width="1.00" stroke-linecap="butt" stroke-linejoin="miter">
	<path stroke='rgb( 86, 180, 233)'  d='M488.0,464.0 L530.2,464.0 M62.2,86.8 L67.8,86.8 L73.4,86.8 L79.0,86.8 L84.5,86.8 L90.1,86.8
		L95.7,86.8 L101.3,86.8 L106.9,86.8 L112.5,86.8 L118.0,86.8 L123.6,86.8 L129.2,86.8 L134.8,86.8
		L140.4,86.8 L146.0,86.8 L151.5,86.8 L157.1,86.8 L162.7,86.8 L168.3,86.8 L173.9,86.8 L179.5,86.8
		L185.0,86.8 L190.6,86.8 L196.2,86.8 L201.8,86.8 L207.4,86.8 L213.0,86.8 L218.5,86.8 L224.1,86.8
		L229.7,86.8 L235.3,86.8 L240.9,86.8 L246.5,86.8 L252.1,86.8 L257.6,86.8 L263.2,86.8 L268.8,86.8
		L274.4,86.8 L280.0,86.8 L285.6,86.8 L291.1,86.8 L296.7,86.8 L302.3,86.8 L307.9,86.8 L313.5,86.8
		L319.1,86.8 L324.6,86.8 L330.2,86.8 L335.8,86.8 L341.4,86.8 L347.0,86.8 L352.6,86.8 L358.1,86.8
		L363.7,86.8 L369.3,86.8 L374.9,86.8 L380.5,86.8 L386.1,86.8 L391.6,86.8 L397.2,86.8 L402.8,86.8
		L408.4,86.8 L414.0,86.8 L419.6,86.8 L425.1,86.8 L430.7,86.8 L436.3,86.8 L441.9,86.8 L447.5,86.8
		L453.1,86.8 L458.7,86.8 L464.2,86.8 L469.8,86.8 L475.4,86.8 L481.0,86.8 L486.6,86.8 L492.2,86.8
		L497.7,86.8 L503.3,86.8 L508.9,86.8 L514.5,86.8 L520.1,86.8 L525.7,86.8 L531.2,86.8 L536.8,86.8
		L542.4,86.8 L548.0,86.8 L553.6,86.8 L559.2,86.8 L564.7,86.8 L570.3,86.8 L575.9,86.8 L581.5,86.8
		L587.1,86.8 L592.7,86.8 L598.2,86.8 L603.8,86.8 L609.4,86.8 L615.0,86.8  '/></g>
	</g>
	<g id="gnuplot_plot_4" ><title>score median=4000</title>
<g fill="none" color="black" stroke="currentColor" stroke-width="1.00" stroke-linecap="butt" stroke-linejoin="miter">
	<g transform="translate(479.7,
